X: 24553
T: Lumps Of Plum Pudding
R: jig
M: 6/8
K: Gmajor
d|B>AG g>fg|d>ed G2A|B>AG G>AB|A>FD D3|
B>AG g>fg|d>ef g>dB|c>AF G>Bc|d2B G2 d|
B>dg B>dg|d>cd G2B|A>ce A>ce|B>dB G2 d|
B>dg B>dg|d>ef g>dB|c>AF G>Bc|d2B G2 d||
e|c>BA a>ga|e>fe A2B|c>BA A>GA|B>cB E2d|
c>BA a>ga|e>fg a3|e>cA Bcd|e2c A2 z|
e>ga e>ga|e2c A>Bc|d>ef dBc|d>BB Bcd|
e>fg a3|e>fg a3|e>cA Bcd|e2c A3|
c2B A3|a2g a3|e2f e3|A3 B3|
c2B A3|A2G A3|B2c B3|
c>BA a>ga|e>fg a3|e>cA Bcd|e2c A2||

